X:91
T:Born in St. Johnstone & burn'd in Dundee
T:very beautiful, Q. are the words fit & to be had
Z:Jack Campin - http://www.campin.me.uk
S:Blaikie MS (NLS MS.1578) p27, Blaikie #85
M:3/4
L:1/4
V:1 midi program 1 74
V:2 midi program 1 46 bass middle = d transpose -24
Q:1/4=100
K:D Minor
[V:1] D  A G   |F> G A|F E  D   |C> D E|D  A G|F> G A|A    f e   |d3||
[V:2] d ^c A   |d3    |f g ^g   |a A2  |d ^c A|d3    |a2     A   |d3||
%
[V:1] A  d d/c/|A  d c|F c  A/G/|F> G A|A  A G|F> G A|G/F/ D C/E/|D3|]
[V:2] d  b a   |f  b a|f2   c   |f2   f|d ^c A|d3    |a2   A     |d3|]
W:Transcription (c) Jack Campin 2009, no mirroring or republication without permission

